X:624
T:Fear a Bhois Fada Gun Phosadh
D:Tannas, Suilean Dubh (1999)
Z:Nigel Gatherer
M:6/8
L:1/8
K:Bm
BBB dde | f3  a3  | A2A c2d | e2f ecA |
BBB dde | f3  a3  | b2f fec | B3  B3 :|
d2d c2B | d2d c2B | A2A c2d | e2f ecA |
d2d c2B | d2d c2B | f2f fec | B3  B3  |
d2d c2B | d2d c2B | A2A c2d | e2f ecA |
BBB dde | f3  a3  | b2f fec | B3  B3 |]
